X: 29981
T: Oceaneyes And The Dragonfly
R: slip jig
M: 9/8
K: Gmajor
|:DEG BAG GAG|cBA BAG A2E|DEG BAG GAG|1 DEG A3 AGE:|2 DEG A3 ABA||
GBd g3f3|efg B3 ABA|GBd efe e2d|GDG ABA A2B|
ABc d2G GAG|G2F E2e EGE|DEG BAG GAG|DEG A3 AGE||

